;FLAVOR:UltiGCode
;TIME:13250
;MATERIAL:8784
;MATERIAL2:0
;NOZZLE_DIAMETER:0.4

;Generated with Cura_SteamEngine 2.1.2
;LAYER_COUNT:210
;LAYER:0
M107
G10
G0 F7200.000000 X95.895 Y95.264 Z0.300
;TYPE:SKIRT
G11
G1 F1800.000 X96.494 Y94.749 E0.09479
G1 X97.142 Y94.298 E0.18953
G1 X97.832 Y93.914 E0.28429
G1 X98.557 Y93.602 E0.37901
G1 X99.311 Y93.365 E0.47385
G1 X100.084 Y93.206 E0.56855
G1 X100.870 Y93.125 E0.66337
G1 X101.271 Y93.115 E0.71151
G1 X121.182 Y93.115 E3.10083
G1 X121.971 Y93.155 E3.19563
G1 X122.751 Y93.274 E3.29031
G1 X123.516 Y93.472 E3.38514
G1 X124.256 Y93.746 E3.47983
G1 X124.965 Y94.094 E3.57461
G1 X125.636 Y94.512 E3.66947
G1 X126.260 Y94.995 E3.76416
G1 X126.833 Y95.538 E3.85889
G1 X127.348 Y96.137 E3.95369
G1 X127.799 Y96.785 E4.04843
G1 X128.183 Y97.476 E4.14329
G1 X128.495 Y98.201 E4.23800
G1 X128.732 Y98.954 E4.33273
G1 X128.891 Y99.728 E4.42755
G1 X128.972 Y100.513 E4.52225
G1 X128.982 Y100.915 E4.57051
G1 X128.983 Y122.026 E7.10383
G1 X128.943 Y122.814 E7.19851
G1 X128.824 Y123.595 E7.29331
G1 X128.626 Y124.359 E7.38802
G1 X128.352 Y125.100 E7.48282
G1 X128.004 Y125.809 E7.57760
G1 X127.587 Y126.479 E7.67230
G1 X127.104 Y127.104 E7.76709
G1 X126.560 Y127.677 E7.86190
G1 X125.961 Y128.191 E7.95662
G1 X125.313 Y128.643 E8.05142
G1 X124.623 Y129.027 E8.14618
G1 X123.897 Y129.338 E8.24096
G1 X123.144 Y129.575 E8.33569
G1 X122.371 Y129.735 E8.43042
G1 X121.201 Y129.826 E8.57124
G1 X101.288 Y129.871 E10.96081
G1 X100.499 Y129.833 E11.05560
G1 X99.718 Y129.715 E11.15038
G1 X98.953 Y129.519 E11.24514
G1 X98.212 Y129.247 E11.33987
G1 X97.502 Y128.901 E11.43464
G1 X96.831 Y128.485 E11.52938
G1 X96.205 Y128.003 E11.62419
G1 X95.631 Y127.460 E11.71901
G1 X95.115 Y126.863 E11.81370
G1 X94.662 Y126.216 E11.90848
G1 X94.277 Y125.526 E12.00329
G1 X93.964 Y124.801 E12.09806
G1 X93.725 Y124.049 E12.19274
G1 X93.564 Y123.276 E12.28749
G1 X93.481 Y122.490 E12.38234
G1 X93.470 Y122.071 E12.43264
G1 X93.471 Y100.915 E14.97136
G1 X93.511 Y100.126 E15.06616
G1 X93.631 Y99.345 E15.16098
G1 X93.828 Y98.581 E15.25566
G1 X94.103 Y97.840 E15.35050
G1 X94.450 Y97.131 E15.44523
G1 X94.868 Y96.461 E15.53999
G1 X95.351 Y95.836 E15.63478
G1 X95.895 Y95.264 E15.72950
G0 F7200.00000 X96.288 Y95.445
G1 F1800.000 X96.882 Y94.957 E15.82175
G1 X97.524 Y94.534 E15.91401
G1 X98.207 Y94.179 E16.00638
G1 X98.923 Y93.897 E16.09872
G1 X99.664 Y93.692 E16.19098
G1 X100.422 Y93.564 E16.28323
G1 X101.271 Y93.515 E16.38528
G1 X121.182 Y93.515 E18.77460
G1 X121.950 Y93.555 E18.86689
G1 X122.710 Y93.674 E18.95920
G1 X123.453 Y93.872 E19.05147
G1 X124.172 Y94.146 E19.14380
G1 X124.858 Y94.493 E19.23605
G1 X125.505 Y94.909 E19.32836
G1 X126.105 Y95.390 E19.42064
G1 X126.652 Y95.931 E19.51296
G1 X127.140 Y96.526 E19.60530
G1 X127.563 Y97.168 E19.69756
G1 X127.918 Y97.851 E19.78993
G1 X128.199 Y98.566 E19.88212
G1 X128.405 Y99.308 E19.97453
G1 X128.533 Y100.066 E20.06677
G1 X128.582 Y100.915 E20.16882
G1 X128.583 Y122.026 E22.70214
G1 X128.543 Y122.794 E22.79443
G1 X128.424 Y123.554 E22.88674
G1 X128.226 Y124.297 E22.97901
G1 X127.952 Y125.016 E23.07134
G1 X127.605 Y125.702 E23.16360
G1 X127.189 Y126.349 E23.25590
G1 X126.708 Y126.949 E23.34818
G1 X126.167 Y127.496 E23.44050
G1 X125.572 Y127.984 E23.53284
G1 X124.930 Y128.407 E23.62510
G1 X124.248 Y128.762 E23.71737
G1 X123.532 Y129.043 E23.80967
G1 X122.791 Y129.249 E23.90196
G1 X122.032 Y129.377 E23.99433
G1 X121.200 Y129.426 E24.09434
G1 X101.287 Y129.471 E26.48390
G1 X100.519 Y129.433 E26.57618
G1 X99.758 Y129.315 E26.66859
G1 X99.015 Y129.119 E26.76080
G1 X98.295 Y128.847 E26.85316
G1 X97.608 Y128.501 E26.94546
G1 X96.960 Y128.087 E27.03774
G1 X96.359 Y127.607 E27.13004
G1 X95.811 Y127.067 E27.22236
G1 X95.322 Y126.473 E27.31469
G1 X94.897 Y125.832 E27.40698
G1 X94.541 Y125.150 E27.49930
G1 X94.258 Y124.435 E27.59157
G1 X94.050 Y123.695 E27.68381
G1 X93.921 Y122.937 E27.77608
G1 X93.870 Y122.071 E27.88018
G1 X93.871 Y100.915 E30.41890
G1 X93.911 Y100.147 E30.51119
G1 X94.031 Y99.387 E30.60352
G1 X94.228 Y98.643 E30.69587
G1 X94.502 Y97.925 E30.78809
G1 X94.849 Y97.238 E30.88045
G1 X95.265 Y96.591 E30.97276
G1 X95.747 Y95.991 E31.06511
G1 X96.288 Y95.445 E31.15735
G0 F7200.00000 X96.680 Y95.631
G1 F1800.000 X97.270 Y95.171 E31.24712
G1 X97.905 Y94.777 E31.33680
G1 X98.580 Y94.453 E31.42665
G1 X99.284 Y94.203 E31.51630
G1 X100.012 Y94.029 E31.60612
G1 X100.754 Y93.934 E31.69588
G1 X101.271 Y93.915 E31.75797
G1 X121.182 Y93.915 E34.14729
G1 X121.929 Y93.955 E34.23706
G1 X122.667 Y94.074 E34.32676
G1 X123.389 Y94.272 E34.41660
G1 X124.085 Y94.545 E34.50631
G1 X124.748 Y94.892 E34.59611
G1 X125.371 Y95.307 E34.68594
G1 X125.945 Y95.786 E34.77565
G1 X126.466 Y96.323 E34.86544
G1 X126.925 Y96.913 E34.95514
G1 X127.320 Y97.549 E35.04498
G1 X127.644 Y98.223 E35.13472
G1 X127.894 Y98.928 E35.22448
G1 X128.068 Y99.656 E35.31430
G1 X128.163 Y100.398 E35.40407
G1 X128.182 Y100.915 E35.46615
G1 X128.183 Y122.026 E37.99947
G1 X128.143 Y122.773 E38.08924
G1 X128.024 Y123.511 E38.17894
G1 X127.826 Y124.233 E38.26878
G1 X127.553 Y124.929 E38.35850
G1 X127.207 Y125.592 E38.44824
G1 X126.792 Y126.215 E38.53807
G1 X126.313 Y126.789 E38.62778
G1 X125.775 Y127.309 E38.71757
G1 X125.185 Y127.769 E38.80734
G1 X124.549 Y128.163 E38.89712
G1 X123.875 Y128.488 E38.98691
G1 X123.170 Y128.738 E39.07668
G1 X122.443 Y128.912 E39.16638
G1 X121.701 Y129.007 E39.25615
G1 X121.199 Y129.026 E39.31643
G1 X101.286 Y129.071 E41.70600
G1 X100.539 Y129.033 E41.79575
G1 X99.800 Y128.915 E41.88555
G1 X99.078 Y128.719 E41.97533
G1 X98.381 Y128.447 E42.06511
G1 X97.717 Y128.102 E42.15491
G1 X97.094 Y127.689 E42.24460
G1 X96.518 Y127.211 E42.33442
G1 X95.997 Y126.675 E42.42412
G1 X95.536 Y126.086 E42.51388
G1 X95.140 Y125.451 E42.60368
G1 X94.814 Y124.777 E42.69352
G1 X94.562 Y124.073 E42.78325
G1 X94.387 Y123.346 E42.87298
G1 X94.290 Y122.604 E42.96278
G1 X94.270 Y122.071 E43.02679
G1 X94.271 Y100.915 E45.56551
G1 X94.311 Y100.168 E45.65528
G1 X94.430 Y99.429 E45.74510
G1 X94.628 Y98.708 E45.83482
G1 X94.902 Y98.011 E45.92469
G1 X95.248 Y97.348 E46.01443
G1 X95.663 Y96.726 E46.10416
G1 X96.142 Y96.151 E46.19397
G1 X96.680 Y95.631 E46.28376
G0 F7200.00000 X97.071 Y95.824
G1 F1800.000 X97.655 Y95.393 E46.37085
G1 X98.284 Y95.030 E46.45800
G1 X98.949 Y94.737 E46.54520
G1 X99.642 Y94.519 E46.63238
G1 X100.354 Y94.379 E46.71946
G1 X101.271 Y94.315 E46.82977
G1 X121.182 Y94.315 E49.21909
G1 X121.907 Y94.355 E49.30622
G1 X122.624 Y94.474 E49.39343
G1 X123.323 Y94.672 E49.48061
G1 X123.996 Y94.945 E49.56777
G1 X124.635 Y95.290 E49.65491
G1 X125.232 Y95.704 E49.74209
G1 X125.780 Y96.180 E49.82919
G1 X126.273 Y96.714 E49.91641
G1 X126.703 Y97.299 E50.00353
G1 X127.067 Y97.928 E50.09074
G1 X127.360 Y98.593 E50.17794
G1 X127.578 Y99.286 E50.26512
G1 X127.718 Y99.998 E50.35219
G1 X127.782 Y100.915 E50.46250
G1 X127.783 Y122.026 E52.99582
G1 X127.743 Y122.751 E53.08295
G1 X127.624 Y123.467 E53.17005
G1 X127.426 Y124.166 E53.25723
G1 X127.153 Y124.840 E53.34450
G1 X126.808 Y125.479 E53.43164
G1 X126.394 Y126.076 E53.51882
G1 X125.918 Y126.624 E53.60592
G1 X125.384 Y127.116 E53.69305
G1 X124.799 Y127.547 E53.78025
G1 X124.171 Y127.911 E53.86735
G1 X123.506 Y128.204 E53.95455
G1 X122.813 Y128.422 E54.04173
G1 X122.100 Y128.562 E54.12893
G1 X121.198 Y128.626 E54.23744
G1 X101.285 Y128.671 E56.62700
G1 X100.560 Y128.633 E56.71412
G1 X99.843 Y128.515 E56.80132
G1 X99.143 Y128.319 E56.88855
G1 X98.470 Y128.047 E56.97566
G1 X97.830 Y127.704 E57.06279
G1 X97.232 Y127.291 E57.15000
G1 X96.683 Y126.816 E57.23712
G1 X96.189 Y126.283 E57.32433
G1 X95.757 Y125.699 E57.41150
G1 X95.391 Y125.072 E57.49862
G1 X95.097 Y124.407 E57.58587
G1 X94.878 Y123.715 E57.67297
G1 X94.736 Y123.003 E57.76009
G1 X94.670 Y122.071 E57.87221
G1 X94.671 Y100.915 E60.41093
G1 X94.711 Y100.189 E60.49818
G1 X94.830 Y99.473 E60.58528
G1 X95.028 Y98.774 E60.67246
G1 X95.301 Y98.101 E60.75961
G1 X95.646 Y97.462 E60.84675
G1 X96.060 Y96.865 E60.93393
G1 X96.537 Y96.317 E61.02112
G1 X97.071 Y95.824 E61.10833
G0 F7200.00000 X97.460 Y96.024
G1 F1800.000 X98.039 Y95.624 E61.19278
G1 X98.660 Y95.292 E61.27728
G1 X99.314 Y95.032 E61.36173
G1 X99.994 Y94.848 E61.44627
G1 X100.690 Y94.742 E61.53075
G1 X101.271 Y94.715 E61.60055
G1 X121.182 Y94.715 E63.98987
G1 X121.885 Y94.755 E64.07436
G1 X122.579 Y94.874 E64.15886
G1 X123.254 Y95.072 E64.24327
G1 X123.903 Y95.344 E64.32771
G1 X124.517 Y95.689 E64.41223
G1 X125.088 Y96.100 E64.49665
G1 X125.609 Y96.574 E64.58118
G1 X126.073 Y97.104 E64.66571
G1 X126.473 Y97.683 E64.75015
G1 X126.805 Y98.304 E64.83465
G1 X127.065 Y98.958 E64.91911
G1 X127.249 Y99.638 E65.00364
G1 X127.355 Y100.334 E65.08813
G1 X127.382 Y100.915 E65.15792
G1 X127.383 Y122.026 E67.69124
G1 X127.343 Y122.729 E67.77574
G1 X127.224 Y123.422 E67.86012
G1 X127.026 Y124.098 E67.94464
G1 X126.754 Y124.747 E68.02909
G1 X126.409 Y125.361 E68.11360
G1 X125.998 Y125.932 E68.19803
G1 X125.524 Y126.453 E68.28255
G1 X124.994 Y126.916 E68.36700
G1 X124.415 Y127.317 E68.45152
G1 X123.794 Y127.649 E68.53602
G1 X123.140 Y127.909 E68.62047
G1 X122.461 Y128.093 E68.70489
G1 X121.765 Y128.199 E68.78937
G1 X121.197 Y128.226 E68.85761
G1 X101.284 Y128.271 E71.24718
G1 X100.581 Y128.233 E71.33166
G1 X99.887 Y128.115 E71.41613
G1 X99.211 Y127.919 E71.50059
G1 X98.561 Y127.648 E71.58510
G1 X97.946 Y127.305 E71.66960
G1 X97.374 Y126.894 E71.75413
G1 X96.853 Y126.422 E71.83849
G1 X96.388 Y125.893 E71.92301
G1 X95.986 Y125.315 E72.00749
G1 X95.653 Y124.695 E72.09194
G1 X95.391 Y124.041 E72.17649
G1 X95.206 Y123.362 E72.26094
G1 X95.099 Y122.666 E72.34544
G1 X95.070 Y122.071 E72.41692
G1 X95.071 Y100.915 E74.95564
G1 X95.111 Y100.212 E75.04014
G1 X95.230 Y99.518 E75.12464
G1 X95.428 Y98.842 E75.20916
G1 X95.700 Y98.193 E75.29361
G1 X96.045 Y97.579 E75.37812
G1 X96.457 Y97.008 E75.46262
G1 X96.931 Y96.488 E75.54705
G1 X97.460 Y96.024 E75.63149
G0 F7200.00000 X97.849 Y96.232
G1 F1800.000 X98.421 Y95.863 E75.71317
G1 X99.033 Y95.564 E75.79491
G1 X99.676 Y95.339 E75.87666
G1 X100.340 Y95.190 E75.95832
G1 X101.271 Y95.115 E76.07040
G1 X121.182 Y95.115 E78.45972
G1 X121.862 Y95.155 E78.54146
G1 X122.532 Y95.274 E78.62312
G1 X123.184 Y95.471 E78.70485
G1 X123.808 Y95.743 E78.78654
G1 X124.396 Y96.087 E78.86829
G1 X124.940 Y96.497 E78.95003
G1 X125.431 Y96.968 E79.03168
G1 X125.865 Y97.493 E79.11341
G1 X126.234 Y98.065 E79.19510
G1 X126.533 Y98.677 E79.27683
G1 X126.758 Y99.319 E79.35847
G1 X126.907 Y99.984 E79.44025
G1 X126.982 Y100.915 E79.55233
G1 X126.983 Y122.026 E82.08565
G1 X126.943 Y122.705 E82.16727
G1 X126.824 Y123.376 E82.24905
G1 X126.627 Y124.028 E82.33078
G1 X126.355 Y124.652 E82.41246
G1 X126.011 Y125.240 E82.49421
G1 X125.601 Y125.783 E82.57586
G1 X125.131 Y126.275 E82.65751
G1 X124.605 Y126.709 E82.73934
G1 X124.033 Y127.077 E82.82096
G1 X123.421 Y127.377 E82.90275
G1 X122.779 Y127.602 E82.98438
G1 X122.115 Y127.751 E83.06605
G1 X121.196 Y127.826 E83.17669
G1 X101.283 Y127.871 E85.56626
G1 X100.603 Y127.833 E85.64799
G1 X99.933 Y127.715 E85.72962
G1 X99.281 Y127.519 E85.81132
G1 X98.656 Y127.248 E85.89307
G1 X98.067 Y126.906 E85.97480
G1 X97.522 Y126.498 E86.05650
G1 X97.029 Y126.028 E86.13823
G1 X96.595 Y125.504 E86.21988
G1 X96.225 Y124.932 E86.30163
G1 X95.924 Y124.321 E86.38336
G1 X95.697 Y123.679 E86.46508
G1 X95.547 Y123.015 E86.54676
G1 X95.470 Y122.071 E86.66042
G1 X95.471 Y100.915 E89.19914
G1 X95.511 Y100.235 E89.28088
G1 X95.630 Y99.565 E89.36254
G1 X95.827 Y98.913 E89.44427
G1 X96.100 Y98.289 E89.52601
G1 X96.443 Y97.701 E89.60769
G1 X96.853 Y97.157 E89.68944
G1 X97.324 Y96.665 E89.77117
G1 X97.849 Y96.232 E89.85283
G0 F7200.00000 X98.236 Y96.449
G1 F1800.000 X98.801 Y96.113 E89.93172
G1 X99.402 Y95.849 E90.01049
G1 X100.031 Y95.659 E90.08934
G1 X100.679 Y95.548 E90.16823
G1 X101.271 Y95.515 E90.23938
G1 X121.182 Y95.515 E92.62870
G1 X121.838 Y95.555 E92.70757
G1 X122.484 Y95.674 E92.78639
G1 X123.111 Y95.871 E92.86526
G1 X123.709 Y96.143 E92.94409
G1 X124.270 Y96.485 E93.02293
G1 X124.785 Y96.893 E93.10178
G1 X125.247 Y97.360 E93.18061
G1 X125.648 Y97.880 E93.25941
G1 X125.984 Y98.444 E93.33819
G1 X126.248 Y99.046 E93.41707
G1 X126.438 Y99.675 E93.49592
G1 X126.549 Y100.322 E93.57469
G1 X126.582 Y100.915 E93.64596
G1 X126.583 Y122.026 E96.17928
G1 X126.543 Y122.681 E96.25803
G1 X126.424 Y123.328 E96.33697
G1 X126.227 Y123.954 E96.41572
G1 X125.955 Y124.553 E96.49466
G1 X125.613 Y125.113 E96.57340
G1 X125.206 Y125.629 E96.65227
G1 X124.738 Y126.090 E96.73110
G1 X124.219 Y126.492 E96.80988
G1 X123.654 Y126.828 E96.88876
G1 X123.052 Y127.092 E96.96764
G1 X122.423 Y127.282 E97.04649
G1 X121.776 Y127.393 E97.12526
G1 X121.195 Y127.426 E97.19510
G1 X101.282 Y127.471 E99.58466
G1 X100.626 Y127.433 E99.66351
G1 X99.980 Y127.315 E99.74232
G1 X99.353 Y127.119 E99.82115
G1 X98.754 Y126.849 E99.89999
G1 X98.192 Y126.508 E99.97887
G1 X97.676 Y126.102 E100.05766
G1 X97.213 Y125.635 E100.13658
G1 X96.811 Y125.116 E100.21536
G1 X96.474 Y124.552 E100.29420
G1 X96.208 Y123.952 E100.37296
G1 X96.017 Y123.323 E100.45184
G1 X95.904 Y122.676 E100.53065
G1 X95.870 Y122.071 E100.60337
G1 X95.871 Y100.915 E103.14209
G1 X95.911 Y100.259 E103.22095
G1 X96.030 Y99.613 E103.29978
G1 X96.227 Y98.986 E103.37865
G1 X96.499 Y98.388 E103.45748
G1 X96.841 Y97.827 E103.53632
G1 X97.249 Y97.312 E103.61517
G1 X97.716 Y96.850 E103.69400
G1 X98.236 Y96.449 E103.77280
G0 F7200.00000 X98.621 Y96.675
G1 F1800.000 X99.177 Y96.375 E103.84861
G1 X99.767 Y96.147 E103.92451
G1 X100.380 Y95.995 E104.00030
G1 X101.271 Y95.915 E104.10765
G1 X121.182 Y95.915 E106.49697
G1 X121.813 Y95.955 E106.57284
G1 X122.434 Y96.074 E106.64872
G1 X123.034 Y96.271 E106.72450
G1 X123.606 Y96.542 E106.80045
G1 X124.138 Y96.882 E106.87622
G1 X124.623 Y97.288 E106.95212
G1 X125.053 Y97.751 E107.02794
G1 X125.422 Y98.265 E107.10387
G1 X125.722 Y98.821 E107.17968
G1 X125.950 Y99.410 E107.25547
G1 X126.102 Y100.024 E107.33138
G1 X126.182 Y100.915 E107.43873
G1 X126.183 Y122.026 E109.97205
G1 X126.143 Y122.657 E110.04792
G1 X126.024 Y123.277 E110.12368
G1 X125.827 Y123.878 E110.19957
G1 X125.556 Y124.449 E110.27542
G1 X125.216 Y124.982 E110.35128
G1 X124.811 Y125.467 E110.42711
G1 X124.347 Y125.897 E110.50302
G1 X123.834 Y126.266 E110.57885
G1 X123.278 Y126.566 E110.65466
G1 X122.688 Y126.794 E110.73057
G1 X122.074 Y126.946 E110.80647
G1 X121.194 Y127.026 E110.91251
G1 X101.281 Y127.071 E113.30207
G1 X100.650 Y127.032 E113.37794
G1 X100.029 Y126.915 E113.45377
G1 X99.428 Y126.719 E113.52963
G1 X98.856 Y126.450 E113.60548
G1 X98.323 Y126.110 E113.68134
G1 X97.837 Y125.706 E113.75718
G1 X97.406 Y125.244 E113.83300
G1 X97.036 Y124.731 E113.90890
G1 X96.734 Y124.176 E113.98472
G1 X96.505 Y123.586 E114.06067
G1 X96.352 Y122.973 E114.13649
G1 X96.270 Y122.071 E114.24517
G1 X96.271 Y100.915 E116.78389
G1 X96.311 Y100.284 E116.85976
G1 X96.430 Y99.663 E116.93564
G1 X96.627 Y99.062 E117.01154
G1 X96.898 Y98.491 E117.08738
G1 X97.239 Y97.959 E117.16321
G1 X97.644 Y97.474 E117.23903
G1 X98.107 Y97.043 E117.31494
G1 X98.621 Y96.675 E117.39080
G0 F7200.00000 X99.003 Y96.913
G1 F1800.000 X99.549 Y96.649 E117.46358
G1 X100.125 Y96.460 E117.53632
G1 X100.721 Y96.348 E117.60909
G1 X101.271 Y96.315 E117.67521
G1 X121.182 Y96.315 E120.06453
G1 X121.787 Y96.355 E120.13729
G1 X122.381 Y96.474 E120.20999
G1 X122.955 Y96.670 E120.28277
G1 X123.498 Y96.941 E120.35560
G1 X124.001 Y97.280 E120.42839
G1 X124.454 Y97.682 E120.50106
G1 X124.851 Y98.140 E120.57380
G1 X125.184 Y98.647 E120.64659
G1 X125.448 Y99.193 E120.71936
G1 X125.637 Y99.769 E120.79211
G1 X125.749 Y100.365 E120.86488
G1 X125.782 Y100.915 E120.93100
G1 X125.783 Y122.026 E123.46432
G1 X125.743 Y122.631 E123.53708
G1 X125.624 Y123.225 E123.60978
G1 X125.428 Y123.799 E123.68256
G1 X125.158 Y124.342 E123.75533
G1 X124.819 Y124.844 E123.82802
G1 X124.416 Y125.298 E123.90087
G1 X123.958 Y125.695 E123.97360
G1 X123.451 Y126.028 E124.04639
G1 X122.905 Y126.291 E124.11912
G1 X122.329 Y126.481 E124.19190
G1 X121.733 Y126.593 E124.26467
G1 X121.193 Y126.626 E124.32959
G1 X101.280 Y126.671 E126.71916
