;FLAVOR:UltiGCode
;TIME:9636
;MATERIAL:7954
;MATERIAL2:0
;NOZZLE_DIAMETER:0.4

;Generated with Cura_SteamEngine 2.1.2
;LAYER_COUNT:233
;LAYER:0
M107
G10
G0 F7200.000000 X89.893 Y89.893 Z0.300
;TYPE:SKIRT
G11
G1 F1800.000 X80.942 Y111.500 E2.80652
G1 X88.727 Y130.293 E5.24752
G1 X88.992 Y131.037 E5.34229
G1 X89.180 Y131.804 E5.43706
G1 X89.262 Y132.317 E5.49940
G1 X89.357 Y133.086 E5.59238
G1 X89.477 Y133.774 E5.67619
G1 X89.626 Y134.439 E5.75797
G1 X89.820 Y135.139 E5.84513
G1 X90.032 Y135.780 E5.92615
G1 X90.278 Y136.419 E6.00832
G1 X90.568 Y137.072 E6.09406
G1 X90.884 Y137.702 E6.17863
G1 X91.218 Y138.290 E6.25978
G1 X91.596 Y138.887 E6.34457
G1 X91.998 Y139.458 E6.42837
G1 X92.429 Y140.011 E6.51251
G1 X92.884 Y140.538 E6.59606
G1 X93.361 Y141.039 E6.67907
G1 X93.862 Y141.516 E6.76208
G1 X94.389 Y141.971 E6.84563
G1 X94.942 Y142.402 E6.92976
G1 X95.513 Y142.804 E7.01356
G1 X96.110 Y143.182 E7.09835
G1 X96.698 Y143.516 E7.17950
G1 X97.332 Y143.834 E7.26461
G1 X97.971 Y144.118 E7.34853
G1 X98.612 Y144.365 E7.43096
G1 X99.277 Y144.585 E7.51501
G1 X99.953 Y144.772 E7.59918
G1 X100.637 Y144.926 E7.68331
G1 X101.312 Y145.042 E7.76550
G1 X102.017 Y145.130 E7.85076
G1 X102.694 Y145.179 E7.93221
G1 X103.400 Y145.197 E8.01696
G1 X104.108 Y145.179 E8.10195
G1 X104.784 Y145.130 E8.18328
G1 X105.485 Y145.043 E8.26804
G1 X106.175 Y144.923 E8.35209
G1 X106.840 Y144.774 E8.43387
G1 X107.524 Y144.585 E8.51902
G1 X108.189 Y144.365 E8.60307
G1 X108.823 Y144.121 E8.68459
G1 X109.472 Y143.832 E8.76985
G1 X110.102 Y143.516 E8.85442
G1 X110.690 Y143.182 E8.93557
G1 X111.287 Y142.804 E9.02037
G1 X111.863 Y142.399 E9.10486
G1 X112.371 Y142.002 E9.18223
G1 X113.017 Y141.548 E9.27698
G1 X113.706 Y141.162 E9.37175
G1 X114.186 Y140.944 E9.43501
G1 X133.107 Y133.107 E11.89259
G1 X142.058 Y111.500 E14.69911
G1 X133.107 Y89.893 E17.50563
G1 X111.500 Y80.942 E20.31215
G1 X89.893 Y89.893 E23.11867
G0 F7200.00000 X89.587 Y89.587
G1 F1800.000 X80.510 Y111.500 E25.96490
G1 X88.358 Y130.446 E28.42575
G1 X88.615 Y131.171 E28.51806
G1 X88.795 Y131.919 E28.61038
G1 X88.865 Y132.366 E28.66467
G1 X88.961 Y133.140 E28.75827
G1 X89.084 Y133.852 E28.84497
G1 X89.242 Y134.552 E28.93108
G1 X89.428 Y135.226 E29.01499
G1 X89.661 Y135.929 E29.10386
G1 X89.911 Y136.580 E29.18754
G1 X90.202 Y137.235 E29.27355
G1 X90.533 Y137.892 E29.36183
G1 X90.876 Y138.499 E29.44550
G1 X91.260 Y139.105 E29.53159
G1 X91.685 Y139.708 E29.62011
G1 X92.112 Y140.255 E29.70338
G1 X92.584 Y140.802 E29.79008
G1 X93.078 Y141.322 E29.87615
G1 X93.598 Y141.816 E29.96222
G1 X94.144 Y142.287 E30.04875
G1 X94.692 Y142.715 E30.13219
G1 X95.295 Y143.140 E30.22072
G1 X95.901 Y143.524 E30.30681
G1 X96.508 Y143.867 E30.39047
G1 X97.169 Y144.200 E30.47929
G1 X97.810 Y144.484 E30.56342
G1 X98.486 Y144.746 E30.65042
G1 X99.165 Y144.969 E30.73618
G1 X99.860 Y145.161 E30.82271
G1 X100.540 Y145.315 E30.90637
G1 X101.257 Y145.439 E30.99369
G1 X101.980 Y145.528 E31.08111
G1 X102.674 Y145.579 E31.16461
G1 X103.400 Y145.597 E31.25176
G1 X104.127 Y145.579 E31.33902
G1 X104.821 Y145.528 E31.42253
G1 X105.539 Y145.439 E31.50935
G1 X106.253 Y145.316 E31.59629
G1 X106.953 Y145.158 E31.68240
G1 X107.636 Y144.969 E31.76744
G1 X108.315 Y144.746 E31.85320
G1 X108.984 Y144.487 E31.93929
G1 X109.635 Y144.198 E32.02476
G1 X110.292 Y143.867 E32.11304
G1 X110.899 Y143.524 E32.19671
G1 X111.505 Y143.140 E32.28280
G1 X112.099 Y142.721 E32.37003
G1 X112.617 Y142.317 E32.44886
G1 X113.247 Y141.876 E32.54114
G1 X113.919 Y141.503 E32.63337
G1 X114.339 Y141.313 E32.68869
G1 X133.413 Y133.413 E35.16612
G1 X142.490 Y111.500 E38.01235
G1 X133.413 Y89.587 E40.85858
G1 X111.500 Y80.510 E43.70481
G1 X89.587 Y89.587 E46.55104
G0 F7200.00000 X89.281 Y89.281
G1 F1800.000 X80.077 Y111.500 E49.43703
G1 X87.988 Y130.599 E51.91774
G1 X88.237 Y131.305 E52.00758
G1 X88.409 Y132.033 E52.09734
G1 X88.468 Y132.415 E52.14372
G1 X88.567 Y133.216 E52.24058
G1 X88.690 Y133.925 E52.32693
G1 X88.849 Y134.630 E52.41365
G1 X89.050 Y135.357 E52.50416
G1 X89.278 Y136.047 E52.59137
G1 X89.551 Y136.755 E52.68242
G1 X89.840 Y137.408 E52.76812
G1 X90.172 Y138.066 E52.85656
G1 X90.538 Y138.713 E52.94576
G1 X90.927 Y139.327 E53.03298
G1 X91.355 Y139.935 E53.12221
G1 X91.806 Y140.513 E53.21018
G1 X92.293 Y141.078 E53.29969
G1 X92.795 Y141.605 E53.38703
G1 X93.322 Y142.107 E53.47437
G1 X93.887 Y142.594 E53.56388
G1 X94.465 Y143.045 E53.65186
G1 X95.073 Y143.473 E53.74108
G1 X95.687 Y143.862 E53.82830
G1 X96.334 Y144.228 E53.91751
G1 X96.989 Y144.558 E54.00552
G1 X97.656 Y144.854 E54.09308
G1 X98.349 Y145.121 E54.18220
G1 X99.040 Y145.349 E54.26952
G1 X99.767 Y145.550 E54.36003
G1 X100.463 Y145.707 E54.44565
G1 X101.203 Y145.835 E54.53577
G1 X101.942 Y145.927 E54.62514
G1 X102.656 Y145.979 E54.71104
G1 X103.400 Y145.998 E54.80035
G1 X104.145 Y145.979 E54.88978
G1 X104.859 Y145.927 E54.97569
G1 X105.615 Y145.833 E55.06711
G1 X106.326 Y145.710 E55.15369
G1 X107.031 Y145.551 E55.24042
G1 X107.761 Y145.349 E55.33131
G1 X108.452 Y145.121 E55.41863
G1 X109.146 Y144.853 E55.50790
G1 X109.808 Y144.560 E55.59477
G1 X110.466 Y144.228 E55.68322
G1 X111.113 Y143.862 E55.77242
G1 X111.727 Y143.473 E55.85964
G1 X112.339 Y143.042 E55.94946
G1 X112.863 Y142.633 E56.02923
G1 X113.476 Y142.204 E56.11902
G1 X114.132 Y141.844 E56.20881
G1 X114.492 Y141.683 E56.25613
G1 X133.720 Y133.719 E58.75358
G1 X142.923 Y111.500 E61.63952
G1 X133.719 Y89.281 E64.52551
G1 X111.500 Y80.077 E67.41150
G1 X89.281 Y89.281 E70.29748
G0 F7200.00000 X88.975 Y88.975
G1 F1800.000 X79.644 Y111.500 E73.22323
G1 X87.619 Y130.752 E75.72384
G1 X87.859 Y131.438 E75.81105
G1 X88.071 Y132.464 E75.93677
G1 X88.171 Y133.271 E76.03435
G1 X88.298 Y134.003 E76.12351
G1 X88.463 Y134.736 E76.21367
G1 X88.667 Y135.475 E76.30566
G1 X88.904 Y136.190 E76.39606
G1 X89.170 Y136.882 E76.48502
G1 X89.483 Y137.587 E76.57758
G1 X89.824 Y138.265 E76.66865
G1 X90.191 Y138.913 E76.75802
G1 X90.592 Y139.545 E76.84784
G1 X91.042 Y140.184 E76.94162
G1 X91.498 Y140.769 E77.03063
G1 X91.984 Y141.332 E77.11988
G1 X92.512 Y141.888 E77.21189
G1 X93.068 Y142.416 E77.30390
G1 X93.631 Y142.902 E77.39315
G1 X94.216 Y143.358 E77.48216
G1 X94.855 Y143.808 E77.57595
G1 X95.487 Y144.209 E77.66576
G1 X96.135 Y144.576 E77.75513
G1 X96.810 Y144.915 E77.84577
G1 X97.512 Y145.227 E77.93795
G1 X98.218 Y145.499 E78.02874
G1 X98.929 Y145.734 E78.11860
G1 X99.660 Y145.936 E78.20961
G1 X100.404 Y146.104 E78.30114
G1 X101.127 Y146.229 E78.38919
G1 X101.903 Y146.325 E78.48302
G1 X102.638 Y146.379 E78.57145
G1 X103.400 Y146.398 E78.66292
G1 X104.163 Y146.379 E78.75451
G1 X104.898 Y146.325 E78.84295
G1 X105.670 Y146.229 E78.93630
G1 X106.404 Y146.102 E79.02569
G1 X107.137 Y145.937 E79.11585
G1 X107.872 Y145.734 E79.20735
G1 X108.583 Y145.499 E79.29721
G1 X109.290 Y145.226 E79.38816
G1 X109.987 Y144.917 E79.47965
G1 X110.665 Y144.576 E79.57072
G1 X111.313 Y144.209 E79.66009
G1 X111.945 Y143.808 E79.74990
G1 X112.576 Y143.364 E79.84249
G1 X113.109 Y142.948 E79.92363
G1 X113.706 Y142.533 E80.01087
G1 X114.645 Y142.052 E80.13748
G1 X134.025 Y134.025 E82.65467
G1 X143.356 Y111.500 E85.58041
G1 X134.025 Y88.975 E88.50616
G1 X111.500 Y79.644 E91.43190
G1 X88.975 Y88.975 E94.35765
G0 F7200.00000 X88.668 Y88.668
G1 F1800.000 X79.211 Y111.500 E97.32321
G1 X87.249 Y130.905 E99.84368
G1 X87.481 Y131.570 E99.92820
G1 X87.674 Y132.514 E100.04382
G1 X87.775 Y133.327 E100.14213
G1 X87.905 Y134.077 E100.23347
G1 X88.074 Y134.829 E100.32596
G1 X88.287 Y135.599 E100.42183
G1 X88.526 Y136.320 E100.51298
G1 X88.803 Y137.042 E100.60578
G1 X89.114 Y137.742 E100.69770
G1 X89.477 Y138.463 E100.79456
G1 X89.850 Y139.121 E100.88533
G1 X90.262 Y139.773 E100.97788
G1 X90.708 Y140.406 E101.07080
G1 X91.183 Y141.015 E101.16348
G1 X91.693 Y141.606 E101.25716
G1 X92.230 Y142.170 E101.35061
G1 X92.792 Y142.705 E101.44372
G1 X93.385 Y143.217 E101.53773
G1 X93.989 Y143.688 E101.62965
G1 X94.627 Y144.138 E101.72333
G1 X95.279 Y144.550 E101.81589
G1 X95.937 Y144.923 E101.90665
G1 X96.655 Y145.285 E102.00314
G1 X97.368 Y145.601 E102.09673
G1 X98.069 Y145.871 E102.18687
G1 X98.804 Y146.114 E102.27977
G1 X99.567 Y146.325 E102.37476
G1 X100.330 Y146.497 E102.46862
G1 X101.071 Y146.625 E102.55886
G1 X101.862 Y146.723 E102.65450
G1 X102.619 Y146.779 E102.74559
G1 X103.400 Y146.798 E102.83934
G1 X104.182 Y146.779 E102.93321
G1 X104.939 Y146.723 E103.02430
G1 X105.725 Y146.625 E103.11935
G1 X106.478 Y146.495 E103.21104
G1 X107.230 Y146.326 E103.30353
G1 X107.997 Y146.114 E103.39902
G1 X108.732 Y145.871 E103.49192
G1 X109.434 Y145.600 E103.58222
G1 X110.142 Y145.286 E103.67516
G1 X110.863 Y144.923 E103.77203
G1 X111.521 Y144.550 E103.86279
G1 X112.173 Y144.138 E103.95534
G1 X112.803 Y143.694 E104.04783
G1 X113.355 Y143.263 E104.13187
G1 X113.934 Y142.862 E104.21639
G1 X114.799 Y142.422 E104.33284
G1 X134.332 Y134.332 E106.86989
G1 X143.789 Y111.500 E109.83546
G1 X134.332 Y88.668 E112.80102
G1 X111.500 Y79.211 E115.76659
G1 X88.668 Y88.668 E118.73216
G0 F7200.00000 X88.362 Y88.362
G1 F1800.000 X78.778 Y111.500 E121.73748
G1 X86.879 Y131.058 E124.27780
G1 X87.103 Y131.702 E124.35962
G1 X87.277 Y132.563 E124.46503
G1 X87.379 Y133.382 E124.56407
G1 X87.512 Y134.155 E124.65819
G1 X87.688 Y134.936 E124.75426
G1 X87.899 Y135.698 E124.84915
G1 X88.150 Y136.457 E124.94508
G1 X88.440 Y137.210 E125.04191
G1 X88.756 Y137.922 E125.13538
G1 X89.116 Y138.637 E125.23145
G1 X89.508 Y139.330 E125.32699
G1 X89.926 Y139.991 E125.42084
G1 X90.389 Y140.648 E125.51729
G1 X90.877 Y141.272 E125.61235
G1 X91.404 Y141.883 E125.70917
G1 X91.947 Y142.453 E125.80364
G1 X92.517 Y142.996 E125.89811
G1 X93.128 Y143.523 E125.99493
G1 X93.752 Y144.011 E126.08999
G1 X94.409 Y144.474 E126.18644
G1 X95.070 Y144.892 E126.28029
G1 X95.763 Y145.284 E126.37584
G1 X96.475 Y145.643 E126.47152
G1 X97.207 Y145.967 E126.56758
G1 X97.944 Y146.252 E126.66240
G1 X98.687 Y146.497 E126.75629
G1 X99.475 Y146.715 E126.85440
G1 X100.237 Y146.886 E126.94811
G1 X101.017 Y147.021 E127.04310
G1 X101.825 Y147.122 E127.14082
G1 X102.600 Y147.178 E127.23406
G1 X103.400 Y147.198 E127.33009
G1 X104.201 Y147.178 E127.42624
G1 X104.976 Y147.122 E127.51948
G1 X105.780 Y147.022 E127.61671
G1 X106.556 Y146.888 E127.71121
G1 X107.337 Y146.712 E127.80728
G1 X108.114 Y146.497 E127.90402
G1 X108.857 Y146.252 E127.99790
G1 X109.595 Y145.967 E128.09284
G1 X110.322 Y145.644 E128.18830
G1 X111.037 Y145.284 E128.28436
G1 X111.730 Y144.892 E128.37990
G1 X112.391 Y144.474 E128.47375
G1 X113.050 Y144.009 E128.57054
G1 X113.602 Y143.578 E128.65458
G1 X114.162 Y143.192 E128.73619
G1 X114.952 Y142.791 E128.84251
G1 X134.638 Y134.637 E131.39946
G1 X144.222 Y111.500 E134.40467
G1 X134.638 Y88.362 E137.40999
G1 X111.500 Y78.778 E140.41531
G1 X88.362 Y88.362 E143.42064
G0 F7200.00000 X88.056 Y88.056
G1 F1800.000 X78.345 Y111.500 E146.46572
G1 X86.510 Y131.211 E149.02594
G1 X86.724 Y131.833 E149.10488
G1 X86.880 Y132.612 E149.20021
G1 X86.982 Y133.436 E149.29985
G1 X87.123 Y134.247 E149.39863
G1 X87.300 Y135.034 E149.49543
G1 X87.513 Y135.804 E149.59130
G1 X87.772 Y136.587 E149.69026
G1 X88.070 Y137.361 E149.78979
G1 X88.395 Y138.094 E149.88601
G1 X88.764 Y138.827 E149.98448
G1 X89.167 Y139.538 E150.08256
G1 X89.591 Y140.208 E150.17770
G1 X90.076 Y140.897 E150.27881
G1 X90.568 Y141.528 E150.37483
G1 X91.104 Y142.149 E150.47327
G1 X91.663 Y142.737 E150.57063
G1 X92.251 Y143.296 E150.66798
G1 X92.872 Y143.832 E150.76642
G1 X93.503 Y144.324 E150.86244
G1 X94.192 Y144.809 E150.96355
G1 X94.862 Y145.233 E151.05870
G1 X95.573 Y145.636 E151.15677
G1 X96.296 Y146.000 E151.25391
G1 X97.063 Y146.340 E151.35458
G1 X97.813 Y146.630 E151.45108
G1 X98.581 Y146.883 E151.54811
G1 X99.363 Y147.099 E151.64546
G1 X100.160 Y147.279 E151.74351
G1 X100.962 Y147.417 E151.84117
G1 X101.767 Y147.517 E151.93851
G1 X102.602 Y147.579 E152.03898
G1 X103.400 Y147.599 E152.13477
G1 X104.199 Y147.579 E152.23068
G1 X105.034 Y147.517 E152.33116
G1 X105.835 Y147.418 E152.42801
G1 X106.648 Y147.277 E152.52703
G1 X107.435 Y147.100 E152.62383
G1 X108.220 Y146.883 E152.72156
G1 X108.988 Y146.630 E152.81859
G1 X109.746 Y146.337 E152.91611
G1 X110.494 Y146.005 E153.01431
G1 X111.227 Y145.636 E153.11279
G1 X111.938 Y145.233 E153.21086
G1 X112.608 Y144.809 E153.30601
G1 X113.299 Y144.322 E153.40746
G1 X113.848 Y143.894 E153.49099
G1 X114.389 Y143.522 E153.56978
G1 X115.105 Y143.161 E153.66600
G1 X134.944 Y134.944 E156.24280
G1 X144.655 Y111.500 E159.28788
G1 X134.944 Y88.056 E162.33296
G1 X111.500 Y78.345 E165.37804
G1 X88.056 Y88.056 E168.42312
G0 F7200.00000 X87.749 Y87.749
G1 F1800.000 X77.911 Y111.500 E171.50807
G1 X86.140 Y131.365 E174.08831
G1 X86.345 Y131.963 E174.16417
G1 X86.483 Y132.662 E174.24967
G1 X86.586 Y133.489 E174.34967
G1 X86.730 Y134.325 E174.45147
G1 X86.911 Y135.127 E174.55013
G1 X87.134 Y135.935 E174.65072
G1 X87.397 Y136.730 E174.75120
G1 X87.696 Y137.505 E174.85088
G1 X88.029 Y138.257 E174.94957
G1 X88.416 Y139.026 E175.05288
G1 X88.820 Y139.738 E175.15112
G1 X89.261 Y140.436 E175.25019
G1 X89.746 Y141.124 E175.35121
G1 X90.262 Y141.785 E175.45183
G1 X90.814 Y142.424 E175.55316
G1 X91.380 Y143.020 E175.65179
G1 X91.976 Y143.586 E175.75043
G1 X92.615 Y144.138 E175.85175
G1 X93.276 Y144.654 E175.95238
G1 X93.964 Y145.139 E176.05339
G1 X94.662 Y145.580 E176.15247
G1 X95.374 Y145.984 E176.25071
G1 X96.140 Y146.369 E176.35358
G1 X96.895 Y146.704 E176.45270
G1 X97.682 Y147.008 E176.55394
G1 X98.457 Y147.263 E176.65185
G1 X99.270 Y147.488 E176.75307
G1 X100.082 Y147.671 E176.85296
G1 X100.907 Y147.814 E176.95343
G1 X101.729 Y147.916 E177.05283
G1 X102.584 Y147.978 E177.15570
G1 X103.400 Y147.999 E177.25365
G1 X104.217 Y147.978 E177.35173
G1 X105.072 Y147.916 E177.45459
G1 X105.890 Y147.814 E177.55351
G1 X106.726 Y147.670 E177.65531
G1 X107.528 Y147.489 E177.75397
G1 X108.344 Y147.263 E177.85558
G1 X109.119 Y147.008 E177.95348
G1 X109.908 Y146.703 E178.05499
G1 X110.657 Y146.371 E178.15331
G1 X111.426 Y145.984 E178.25661
G1 X112.138 Y145.580 E178.35485
G1 X112.836 Y145.139 E178.45393
G1 X113.527 Y144.652 E178.55537
G1 X114.094 Y144.209 E178.64171
G1 X114.616 Y143.852 E178.71760
G1 X115.258 Y143.531 E178.80374
G1 X135.251 Y135.250 E181.40055
G1 X145.089 Y111.500 E184.48539
G1 X135.251 Y87.749 E187.57034
G1 X111.500 Y77.911 E190.65529
G1 X87.749 Y87.749 E193.74023
G0 F7200.00000 X87.444 Y87.444
G1 F1800.000 X77.479 Y111.500 E196.86483
G1 X85.771 Y131.518 E199.46492
G1 X85.965 Y132.092 E199.53763
G1 X86.086 Y132.711 E199.61331
G1 X86.189 Y133.544 E199.71403
G1 X86.338 Y134.402 E199.81854
G1 X86.525 Y135.233 E199.92075
G1 X86.751 Y136.052 E200.02270
G1 X87.017 Y136.855 E200.12421
G1 X87.322 Y137.649 E200.22628
G1 X87.680 Y138.454 E200.33200
G1 X88.056 Y139.201 E200.43236
G1 X88.478 Y139.946 E200.53510
G1 X88.926 Y140.654 E200.63564
G1 X89.424 Y141.361 E200.73942
G1 X89.956 Y142.043 E200.84321
G1 X90.504 Y142.678 E200.94386
G1 X91.098 Y143.302 E201.04725
G1 X91.719 Y143.893 E201.15012
G1 X92.357 Y144.444 E201.25128
G1 X93.039 Y144.976 E201.35507
G1 X93.746 Y145.474 E201.45885
G1 X94.454 Y145.922 E201.55939
G1 X95.199 Y146.344 E201.66213
G1 X95.961 Y146.727 E201.76447
G1 X96.733 Y147.070 E201.86585
G1 X97.533 Y147.379 E201.96876
G1 X98.365 Y147.653 E202.07387
G1 X99.163 Y147.874 E202.17324
G1 X100.005 Y148.063 E202.27679
G1 X100.855 Y148.210 E202.38031
G1 X101.688 Y148.314 E202.48104
G1 X102.545 Y148.377 E202.58416
G1 X103.400 Y148.398 E202.68679
G1 X104.256 Y148.377 E202.78954
G1 X105.113 Y148.314 E202.89266
G1 X105.943 Y148.211 E202.99302
G1 X106.803 Y148.062 E203.09776
G1 X107.634 Y147.875 E203.19997
G1 X108.436 Y147.653 E203.29983
G1 X109.268 Y147.379 E203.40495
G1 X110.051 Y147.076 E203.50570
G1 X110.854 Y146.720 E203.61110
G1 X111.601 Y146.344 E203.71146
G1 X112.346 Y145.922 E203.81420
G1 X113.054 Y145.474 E203.91474
G1 X113.763 Y144.975 E204.01878
G1 X114.340 Y144.524 E204.10667
G1 X114.842 Y144.183 E204.17949
G1 X115.411 Y143.900 E204.25575
G1 X135.556 Y135.556 E206.87231
G1 X145.521 Y111.500 E209.99690
G1 X135.556 Y87.444 E213.12150
G1 X111.500 Y77.479 E216.24609
G1 X87.444 Y87.444 E219.37069
